;Generated by Cura LulzBot Edition GCodeWriter Version: 3.6.20
;FLAVOR:Marlin
;TIME:1597
;Filament used: 0.382362m
;Layer height: 0.18
;Generated with Cura_SteamEngine 3.6.20
M82 ;absolute extrusion mode
;This G-Code has been generated specifically for the LulzBot TAZ 5 with a SE 0.5mm Tool Head
M73 P0       ; clear GLCD progress bar
M75			 ; Start GLCD Timer
M140 S110.0    ; start bed heating up
G90                      ; absolute positioning
M107                     ; disable fans
M82                      ; set extruder to absolute mode
G28 X0 Y0                ; home X and Y
G28 Z0                   ; home Z
G1 Z15.0 F175 ; move extruder up
M117 Heating...                     ; progress indicator message on LCD
M109 R245  ; wait for extruder to reach printing temp
M190 R110.0    ; wait for bed to reach printing temp
G92 E0                   ; set extruder position to 0
G1 F200 E0               ; prime the nozzle with filament
G92 E0                   ; re-set extruder position to 0
G1 F175       ; set travel speed
M203 X192 Y208 Z3        ; set limits on travel speed
M117 TAZ 5 Printing...   ; progress indicator message on LCD

M221 S100 T0
G92 E0
G1 F600 E-1
;LAYER_COUNT:67
;LAYER:0
M107
G0 F2625 X145.39 Y68.569 Z0.425
;TYPE:SKIRT
G1 F600 E0
G1 F900 X145.68 Y68.028 E0.02045
G1 X146.899 Y66.1 E0.09643
G1 X147.289 Y65.576 E0.11819
G1 X148.705 Y63.954 E0.18991
G1 X149.149 Y63.516 E0.21068
G1 X150.734 Y62.164 E0.28008
G1 X151.264 Y61.778 E0.30192
G1 X153.283 Y60.535 E0.3809
G1 X153.783 Y60.271 E0.39973
G1 X155.16 Y59.658 E0.44994
G1 X155.683 Y59.465 E0.46851
G1 X157.827 Y58.831 E0.54298
G1 X158.391 Y58.706 E0.56223
G1 X160.089 Y58.447 E0.61944
G1 X160.601 Y58.4 E0.63657
G1 X162.451 Y58.344 E0.69822
G1 X163.116 Y58.376 E0.7204
G1 X165.624 Y58.695 E0.80461
G1 X166.155 Y58.797 E0.82262
G1 X167.446 Y59.132 E0.86705
G1 X167.935 Y59.291 E0.88418
G1 X169.75 Y60.005 E0.94915
G1 X170.283 Y60.259 E0.96882
G1 X172.163 Y61.32 E1.04072
G1 X172.664 Y61.651 E1.06073
G1 X174.224 Y62.85 E1.12627
G1 X174.665 Y63.241 E1.1459
G1 X176.037 Y64.637 E1.2111
G1 X176.428 Y65.095 E1.23116
G1 X177.718 Y66.846 E1.3036
G1 X178.035 Y67.347 E1.32335
G1 X178.93 Y69.004 E1.38608
G1 X179.146 Y69.468 E1.40313
G1 X179.745 Y70.991 E1.45765
G1 X179.913 Y71.515 E1.47598
G1 X180.392 Y73.429 E1.5417
G1 X180.486 Y73.934 E1.55881
G1 X180.681 Y75.494 E1.61118
G1 X180.714 Y76.051 E1.62976
G1 X180.698 Y78.281 E1.70405
G1 X180.637 Y78.971 E1.72712
G1 X180.214 Y81.433 E1.81033
G1 X180.042 Y82.102 E1.83334
G1 X179.323 Y84.181 E1.90662
G1 X179.077 Y84.752 E1.92733
G1 X178.176 Y86.486 E1.99242
G1 X177.844 Y87.024 E2.01348
G1 X176.397 Y89.016 E2.09549
G1 X176.052 Y89.432 E2.1135
G1 X175.26 Y90.273 E2.15198
G1 X174.867 Y90.64 E2.16989
G1 X172.984 Y92.19 E2.25113
G1 X172.436 Y92.573 E2.2734
G1 X170.569 Y93.67 E2.34553
G1 X169.987 Y93.955 E2.36712
G1 X167.905 Y94.783 E2.44175
G1 X167.368 Y94.956 E2.46055
G1 X165.794 Y95.351 E2.5146
G1 X165.312 Y95.443 E2.53095
G1 X163.678 Y95.657 E2.58584
G1 X163.124 Y95.693 E2.60433
G1 X160.959 Y95.692 E2.67645
G1 X160.333 Y95.645 E2.69736
G1 X158.166 Y95.321 E2.77035
G1 X157.626 Y95.204 E2.78875
G1 X156.254 Y94.812 E2.83628
G1 X155.792 Y94.651 E2.85258
G1 X154.058 Y93.931 E2.91512
G1 X153.525 Y93.664 E2.93498
G1 X151.599 Y92.525 E3.00951
G1 X151.114 Y92.191 E3.02913
G1 X149.648 Y91.023 E3.09157
G1 X149.298 Y90.711 E3.10719
G1 X148.43 Y89.847 E3.14798
G1 X148.074 Y89.445 E3.16587
G1 X146.631 Y87.591 E3.24413
G1 X146.27 Y87.046 E3.2659
G1 X145.22 Y85.157 E3.33789
G1 X144.981 Y84.652 E3.3565
G1 X144.381 Y83.131 E3.41097
G1 X144.225 Y82.652 E3.42775
G1 X143.767 Y80.91 E3.48775
G1 X143.656 Y80.32 E3.50775
G1 X143.387 Y78.009 E3.58525
G1 X143.358 Y77.469 E3.60326
G1 X143.373 Y76.176 E3.64633
G1 X143.407 Y75.686 E3.66269
G1 X143.668 Y73.643 E3.7313
G1 X143.792 Y73.035 E3.75197
G1 X144.372 Y70.965 E3.82358
G1 X144.582 Y70.382 E3.84422
G1 X145.39 Y68.569 E3.91034
G0 F2625 X145.847 Y68.772
G1 F900 X146.102 Y68.295 E3.92835
G1 X147.321 Y66.367 E4.00434
G1 X147.666 Y65.905 E4.02354
G1 X149.082 Y64.283 E4.09526
G1 X149.473 Y63.896 E4.11359
G1 X151.058 Y62.544 E4.18298
G1 X151.526 Y62.204 E4.20225
G1 X153.545 Y60.961 E4.28123
G1 X153.986 Y60.728 E4.29784
G1 X155.363 Y60.115 E4.34805
G1 X155.825 Y59.945 E4.36445
G1 X157.969 Y59.311 E4.43893
G1 X158.467 Y59.2 E4.45592
G1 X160.165 Y58.941 E4.51314
G1 X160.617 Y58.9 E4.52825
G1 X162.467 Y58.844 E4.58991
G1 X163.053 Y58.872 E4.60945
G1 X165.561 Y59.191 E4.69366
G1 X166.03 Y59.281 E4.70957
G1 X167.321 Y59.616 E4.754
G1 X167.752 Y59.756 E4.76909
G1 X169.567 Y60.47 E4.83406
G1 X170.037 Y60.694 E4.85141
G1 X171.917 Y61.755 E4.92331
G1 X172.359 Y62.048 E4.94098
G1 X173.919 Y63.247 E5.00652
G1 X174.309 Y63.591 E5.02384
G1 X175.681 Y64.987 E5.08904
G1 X176.025 Y65.392 E5.10674
G1 X177.315 Y67.143 E5.17919
G1 X177.595 Y67.585 E5.19662
G1 X178.49 Y69.242 E5.25935
G1 X178.681 Y69.651 E5.27438
G1 X179.28 Y71.174 E5.3289
G1 X179.428 Y71.637 E5.34509
G1 X179.907 Y73.551 E5.41081
G1 X179.99 Y73.996 E5.42589
G1 X180.185 Y75.556 E5.47826
G1 X180.214 Y76.048 E5.49468
G1 X180.198 Y78.278 E5.56896
G1 X180.144 Y78.886 E5.58929
G1 X179.721 Y81.348 E5.6725
G1 X179.569 Y81.939 E5.69283
G1 X178.85 Y84.018 E5.76611
G1 X178.634 Y84.521 E5.78434
G1 X177.733 Y86.255 E5.84944
G1 X177.439 Y86.73 E5.86804
G1 X175.992 Y88.722 E5.95006
G1 X175.688 Y89.089 E5.96593
G1 X174.896 Y89.93 E6.00441
G1 X174.549 Y90.254 E6.02023
G1 X172.666 Y91.804 E6.10147
G1 X172.183 Y92.142 E6.1211
G1 X170.316 Y93.239 E6.19323
G1 X169.802 Y93.491 E6.2123
G1 X167.72 Y94.319 E6.28694
G1 X167.247 Y94.471 E6.30349
G1 X165.673 Y94.866 E6.35754
G1 X165.247 Y94.947 E6.37199
G1 X163.613 Y95.161 E6.42688
G1 X163.124 Y95.193 E6.44321
G1 X160.959 Y95.192 E6.51532
G1 X160.406 Y95.151 E6.53379
G1 X158.239 Y94.827 E6.60678
G1 X157.764 Y94.724 E6.62297
G1 X156.392 Y94.332 E6.6705
G1 X155.984 Y94.189 E6.6849
G1 X154.25 Y93.469 E6.74744
G1 X153.779 Y93.234 E6.76498
G1 X151.853 Y92.095 E6.83951
G1 X151.425 Y91.8 E6.85683
G1 X149.959 Y90.632 E6.91926
G1 X149.65 Y90.357 E6.93304
G1 X148.782 Y89.493 E6.97384
G1 X148.469 Y89.138 E6.9896
G1 X147.026 Y87.284 E7.06786
G1 X146.707 Y86.803 E7.08709
G1 X145.657 Y84.914 E7.15908
G1 X145.447 Y84.468 E7.1755
G1 X144.847 Y82.947 E7.22996
G1 X144.708 Y82.525 E7.24476
G1 X144.25 Y80.783 E7.30476
G1 X144.152 Y80.263 E7.32239
G1 X143.883 Y77.952 E7.39989
G1 X143.858 Y77.474 E7.41583
G1 X143.873 Y76.181 E7.45891
G1 X143.903 Y75.75 E7.4733
G1 X144.164 Y73.707 E7.5419
G1 X144.273 Y73.17 E7.56016
G1 X144.853 Y71.1 E7.63176
G1 X145.039 Y70.585 E7.65
G1 X145.847 Y68.772 E7.71612
G0 F2625 X146.303 Y68.976
G1 F900 X146.525 Y68.562 E7.73177
G1 X147.744 Y66.634 E7.80775
G1 X148.043 Y66.234 E7.82439
G1 X149.459 Y64.612 E7.89611
G1 X149.798 Y64.276 E7.91201
G1 X151.383 Y62.924 E7.9814
G1 X151.788 Y62.629 E7.99809
G1 X153.807 Y61.386 E8.07707
G1 X154.189 Y61.185 E8.09145
G1 X155.566 Y60.572 E8.14166
G1 X155.966 Y60.424 E8.15586
G1 X158.11 Y59.79 E8.23034
G1 X158.542 Y59.694 E8.24508
G1 X160.24 Y59.435 E8.30229
G1 X160.632 Y59.399 E8.31541
G1 X162.482 Y59.343 E8.37706
G1 X162.99 Y59.368 E8.394
G1 X165.498 Y59.687 E8.47822
G1 X165.904 Y59.765 E8.49199
G1 X167.195 Y60.1 E8.53642
G1 X167.569 Y60.222 E8.54952
G1 X169.384 Y60.936 E8.61449
G1 X169.791 Y61.13 E8.62951
G1 X171.671 Y62.191 E8.70142
G1 X172.055 Y62.444 E8.71673
G1 X173.615 Y63.643 E8.78227
G1 X173.952 Y63.942 E8.79728
G1 X175.324 Y65.338 E8.86248
G1 X175.623 Y65.688 E8.87781
G1 X176.913 Y67.439 E8.95026
G1 X177.156 Y67.822 E8.96537
G1 X178.051 Y69.479 E9.0281
G1 X178.215 Y69.834 E9.04113
G1 X178.814 Y71.357 E9.09564
G1 X178.943 Y71.758 E9.10967
G1 X179.422 Y73.672 E9.17539
G1 X179.494 Y74.058 E9.18847
G1 X179.689 Y75.618 E9.24084
G1 X179.714 Y76.044 E9.25506
G1 X179.698 Y78.274 E9.32934
G1 X179.651 Y78.801 E9.34697
G1 X179.228 Y81.263 E9.43018
G1 X179.097 Y81.775 E9.44778
G1 X178.378 Y83.854 E9.52106
G1 X178.19 Y84.291 E9.5369
G1 X177.289 Y86.025 E9.602
G1 X177.034 Y86.436 E9.61811
G1 X175.587 Y88.428 E9.70012
G1 X175.324 Y88.746 E9.71387
G1 X174.532 Y89.587 E9.75235
G1 X174.231 Y89.868 E9.76607
G1 X172.348 Y91.418 E9.84731
G1 X171.929 Y91.711 E9.86434
G1 X170.062 Y92.808 E9.93647
G1 X169.617 Y93.026 E9.95297
G1 X167.535 Y93.854 E10.02761
G1 X167.125 Y93.986 E10.04196
G1 X165.551 Y94.381 E10.09601
G1 X165.182 Y94.451 E10.10852
G1 X163.548 Y94.665 E10.16342
G1 X163.124 Y94.693 E10.17757
G1 X160.959 Y94.692 E10.24969
G1 X160.48 Y94.656 E10.26569
G1 X158.313 Y94.332 E10.33868
G1 X157.901 Y94.243 E10.35272
G1 X156.529 Y93.851 E10.40025
G1 X156.176 Y93.728 E10.4127
G1 X154.442 Y93.008 E10.47524
G1 X154.034 Y92.803 E10.49045
G1 X152.108 Y91.664 E10.56498
G1 X151.737 Y91.409 E10.57998
G1 X150.271 Y90.241 E10.64242
G1 X150.003 Y90.002 E10.65438
G1 X149.135 Y89.138 E10.69517
G1 X148.863 Y88.831 E10.70884
G1 X147.42 Y86.977 E10.7871
G1 X147.144 Y86.56 E10.80375
G1 X146.094 Y84.671 E10.87574
G1 X145.912 Y84.285 E10.88996
G1 X145.312 Y82.764 E10.94442
G1 X145.192 Y82.397 E10.95729
G1 X144.734 Y80.655 E11.01728
G1 X144.649 Y80.205 E11.03254
G1 X144.38 Y77.894 E11.11004
G1 X144.358 Y77.48 E11.12385
G1 X144.373 Y76.187 E11.16692
G1 X144.399 Y75.813 E11.17941
G1 X144.66 Y73.77 E11.24802
G1 X144.755 Y73.305 E11.26383
G1 X145.335 Y71.235 E11.33543
G1 X145.495 Y70.789 E11.35122
G1 X146.303 Y68.976 E11.41734
G1 F600 E10.41734
;MESH:
G0 F2625 X150.405 Y67.382
G0 X151.525 Y68.279
G0 X152.885 Y66.868
G0 X154.178 Y65.838
G0 X155.584 Y64.97
G0 X157.086 Y64.279
G0 X158.66 Y63.773
G0 X160.282 Y63.461
G0 X161.932 Y63.346
G0 X163.582 Y63.433
G0 X164.576 Y63.578
G0 X164.617 Y63.564
G0 X164.684 Y63.54
G0 X164.665 Y63.638
;TYPE:WALL-INNER
G1 F600 E11.41734
G1 F900 X164.651 Y63.636 E11.41781
G1 X164.123 Y63.544 E11.43566
G1 X163.604 Y63.476 E11.45309
G1 X163.578 Y63.472 E11.45397
G1 X163.083 Y63.426 E11.47053
G1 X163.031 Y63.421 E11.47227
G1 X162.57 Y63.397 E11.48765
G1 X162.482 Y63.392 E11.49058
G1 X162.052 Y63.388 E11.50491
G1 X161.932 Y63.386 E11.50891
G1 X161.531 Y63.396 E11.52227
G1 X161.382 Y63.401 E11.52723
G1 X161.019 Y63.426 E11.53935
G1 X160.834 Y63.44 E11.54553
G1 X160.497 Y63.476 E11.55682
G1 X160.287 Y63.5 E11.56386
G1 X159.974 Y63.547 E11.57441
G1 X159.745 Y63.582 E11.58212
G1 X159.455 Y63.637 E11.59196
G1 X159.204 Y63.686 E11.60047
G1 X158.975 Y63.739 E11.6083
G1 X158.669 Y63.811 E11.61878
G1 X158.46 Y63.868 E11.62599
G1 X158.139 Y63.958 E11.6371
G1 X157.945 Y64.02 E11.64388
G1 X157.615 Y64.127 E11.65544
G1 X157.473 Y64.179 E11.66047
G1 X157.1 Y64.316 E11.67371
G1 X156.984 Y64.364 E11.67789
G1 X156.591 Y64.526 E11.69205
G1 X156.488 Y64.573 E11.69582
G1 X156.092 Y64.755 E11.71034
G1 X156.02 Y64.791 E11.71302
G1 X155.602 Y65.005 E11.72866
G1 X155.582 Y65.016 E11.72942
G1 X155.123 Y65.275 E11.74698
G1 X154.684 Y65.546 E11.76416
G1 X154.655 Y65.564 E11.7653
G1 X154.228 Y65.851 E11.78244
G1 X154.2 Y65.87 E11.78357
G1 X153.832 Y66.14 E11.79877
G1 X153.756 Y66.195 E11.8019
G1 X153.416 Y66.467 E11.8164
G1 X153.326 Y66.539 E11.82024
G1 X153.021 Y66.802 E11.83365
G1 X152.911 Y66.897 E11.8385
G1 X152.63 Y67.161 E11.85134
G1 X152.509 Y67.274 E11.85685
G1 X152.255 Y67.534 E11.86896
G1 X152.124 Y67.667 E11.87518
G1 X151.914 Y67.899 E11.8856
G1 X151.755 Y68.075 E11.8935
G1 X151.561 Y68.307 E11.90358
G1 X151.403 Y68.495 E11.91176
G1 X151.253 Y68.69 E11.91995
G1 X151.067 Y68.932 E11.93012
G1 X150.927 Y69.13 E11.9382
G1 X150.75 Y69.38 E11.9484
G1 X150.639 Y69.551 E11.95519
G1 X150.451 Y69.841 E11.9667
G1 X150.367 Y69.983 E11.9722
G1 X150.171 Y70.315 E11.98504
G1 X150.103 Y70.442 E11.98984
G1 X149.91 Y70.798 E12.00333
G1 X149.864 Y70.892 E12.00682
G1 X149.668 Y71.292 E12.02165
G1 X149.631 Y71.377 E12.02474
G1 X149.447 Y71.796 E12.03999
G1 X149.435 Y71.828 E12.04112
G1 X149.246 Y72.307 E12.05828
G1 X149.235 Y72.339 E12.0594
G1 X149.071 Y72.813 E12.07611
G1 X149.066 Y72.827 E12.07661
G1 X148.918 Y73.32 E12.09375
G1 X148.907 Y73.354 E12.09494
G1 X148.784 Y73.832 E12.11138
G1 X148.77 Y73.886 E12.11324
G1 X148.676 Y74.321 E12.12807
G1 X148.654 Y74.422 E12.13151
G1 X148.58 Y74.85 E12.14598
G1 X148.56 Y74.964 E12.14983
G1 X148.509 Y75.356 E12.163
G1 X148.488 Y75.509 E12.16815
G1 X148.455 Y75.863 E12.17999
G1 X148.437 Y76.057 E12.18648
G1 X148.42 Y76.392 E12.19765
G1 X148.408 Y76.605 E12.20476
G1 X148.405 Y76.919 E12.21522
G1 X148.402 Y77.155 E12.22308
G1 X148.409 Y77.43 E12.23224
G1 X148.417 Y77.705 E12.24141
G1 X148.433 Y77.94 E12.24925
G1 X148.456 Y78.254 E12.25974
G1 X148.477 Y78.446 E12.26617
G1 X148.516 Y78.8 E12.27804
G1 X148.542 Y78.979 E12.28406
G1 X148.598 Y79.344 E12.29636
G1 X148.625 Y79.485 E12.30115
G1 X148.702 Y79.883 E12.31465
G1 X148.725 Y79.985 E12.31813
G1 X148.827 Y80.419 E12.33298
G1 X148.851 Y80.506 E12.33599
G1 X148.974 Y80.949 E12.3513
G1 X148.987 Y80.99 E12.35274
G1 X149.143 Y81.472 E12.36961
G1 X149.148 Y81.486 E12.37011
G1 X149.333 Y81.991 E12.38802
G1 X149.53 Y82.458 E12.40491
G1 X149.606 Y82.636 E12.41135
G1 X149.743 Y82.927 E12.42207
G1 X149.842 Y83.134 E12.42971
G1 X149.985 Y83.407 E12.43998
G1 X150.098 Y83.621 E12.44804
G1 X150.232 Y83.854 E12.45699
G1 X150.372 Y84.096 E12.4663
G1 X150.504 Y84.305 E12.47454
G1 X150.666 Y84.562 E12.48466
G1 X150.789 Y84.74 E12.49186
G1 X150.975 Y85.01 E12.50278
G1 X151.079 Y85.152 E12.50865
G1 X151.211 Y85.332 E12.51608
G1 X151.401 Y85.57 E12.52623
G1 X151.555 Y85.762 E12.53443
G1 X151.729 Y85.963 E12.54328
G1 X151.915 Y86.177 E12.55273
G1 X152.082 Y86.355 E12.56086
G1 X152.29 Y86.578 E12.57101
G1 X152.436 Y86.721 E12.57782
G1 X152.683 Y86.963 E12.58934
G1 X152.819 Y87.086 E12.59545
G1 X153.091 Y87.332 E12.60766
G1 X153.215 Y87.436 E12.61306
G1 X153.511 Y87.684 E12.62592
G1 X153.61 Y87.76 E12.63008
G1 X153.948 Y88.02 E12.64428
G1 X154.033 Y88.08 E12.64775
G1 X154.396 Y88.337 E12.66256
G1 X154.448 Y88.371 E12.66463
G1 X154.857 Y88.636 E12.68087
G1 X154.878 Y88.648 E12.68167
G1 X155.331 Y88.917 E12.69922
G1 X155.795 Y89.166 E12.71676
G1 X155.815 Y89.177 E12.71752
G1 X156.269 Y89.4 E12.73437
G1 X156.308 Y89.419 E12.73582
G1 X156.744 Y89.61 E12.75167
G1 X156.812 Y89.64 E12.75415
G1 X157.216 Y89.798 E12.7686
G1 X157.324 Y89.841 E12.77247
G1 X157.715 Y89.976 E12.78625
G1 X157.843 Y90.021 E12.79077
G1 X158.201 Y90.129 E12.80322
G1 X158.37 Y90.18 E12.8091
G1 X158.698 Y90.264 E12.82038
G1 X158.902 Y90.317 E12.8274
G1 X159.21 Y90.383 E12.8379
G1 X159.439 Y90.433 E12.8457
G1 X159.727 Y90.483 E12.85544
G1 X159.98 Y90.527 E12.86399
G1 X160.237 Y90.561 E12.87263
G1 X160.525 Y90.6 E12.88231
G1 X160.748 Y90.62 E12.88977
G1 X161.073 Y90.65 E12.90064
G1 X161.27 Y90.66 E12.90721
G1 X161.622 Y90.679 E12.91895
G1 X161.805 Y90.681 E12.92505
G1 X162.171 Y90.685 E12.93724
G1 X162.296 Y90.682 E12.94141
G1 X162.721 Y90.67 E12.95557
G1 X162.83 Y90.663 E12.95921
G1 X163.27 Y90.631 E12.9739
G1 X163.353 Y90.622 E12.97668
G1 X163.816 Y90.571 E12.9922
G1 X163.866 Y90.564 E12.99388
G1 X164.359 Y90.489 E13.01049
G1 X164.374 Y90.486 E13.011
G1 X164.899 Y90.386 E13.0288
G1 X165.399 Y90.268 E13.04592
G1 X165.435 Y90.259 E13.04715
G1 X165.902 Y90.131 E13.06328
G1 X165.965 Y90.113 E13.06547
G1 X166.387 Y89.978 E13.08022
G1 X166.488 Y89.945 E13.08376
G1 X166.886 Y89.8 E13.09787
G1 X167.005 Y89.756 E13.1021
G1 X167.36 Y89.609 E13.1149
G1 X167.512 Y89.545 E13.12039
G1 X167.833 Y89.398 E13.13215
G1 X168.011 Y89.316 E13.13868
G1 X168.308 Y89.165 E13.14978
G1 X168.501 Y89.066 E13.157
G1 X168.766 Y88.917 E13.16713
G1 X168.981 Y88.796 E13.17535
G1 X169.223 Y88.648 E13.1848
G1 X169.449 Y88.509 E13.19364
G1 X169.641 Y88.38 E13.20134
G1 X169.905 Y88.201 E13.21197
